X: 36481
T: Selma's Air
R: polka
M: 2/4
K: Gmajor
DE/F/|G2 cA|B2 B/A/G|AB/d/ g<a|ag f<d|
e/d/c/B/ c2|d/c/ (3A/B/c/ d2|(3e/d/c/ B/<G/ Bc/d/|cB A2|
D/D/G cA|B2 B/A/G|A/B/d ga|ag f<d|
e/d/c/B/ c2|d/c/ (3A/B/c/ d2|(3e/d/c/ B/<G/ cA|GF GB/c/|
de/f/ g/B/c|df ed|(3e/d/c/ A/B/ d/c/B/A/|GB/d/ g/B/c|
df ed|D/D/G cA|B2 B/A/G|GB/d/ ga|
ag f<d|e/d/c/B/ c2|(3d/c/A/ B/c/ d2|(3e/d/c/ B/<G/ cA|
GF G2|G2 G2|G2 G2||

